!!!!SEGMENT: pl-kk--kk-i-636--002-002_anonim--in-parasceve-responsorium-1mum.krn
!!!cenid: 18xx:4536
!!!COM: Anonim
!!!COM-rismID: pe30004985
!!!CDT:
!!!CNT:
!!!OPR: In Parasceve
!!!OTL: Responsorium 1mum
!!!OMV: 002
!!!PDT:
!!!AGN: Sacred
!!!YEC: Copyright 2022 Narodowy Instytut Fryderyka Chopina (https://polishscores.org)
!!!YEM: License CC-BY-4.0 (https://creativecommons.org/licenses/by/4.0)
!!!SMS-siglum: PL-Kk
!!!SMS-shelfmark: Kk.I.636
!!!SMS-variant:
!!!SMS-altvar:
!!!SMS-shelfwork: 002-002 M
!!!NIFC-rismSourceID: 1001216440
!!!NIFC-rismChildID: 1001216914
!!!NIFC-islandoraID: pl-kk:40786
!!!URL-pdf-islandora: https://repozytorium.nifc.pl/islandora/object/pl-kk%3A40786/datastream/PDF/view
!!!URL-scan: https://polish.musicsources.pl/pl/lokalizacje/galeria/rekopisy/7271/1 @EN{Scan on Polish Music Sources Website} @PL{Skany w portalu Dziedzictwo Muzyki Polskiej w otwartym dostępie}
!!!IIIF:
!!!ONB-nifc: UWAGA: Lamentacje i Responsoria In Parasceve na skanach: S – 8-14, A – 31-37,T – 53-60, B – 78-86. Każda Lamentacja i Responsorium to oddzielne pliki.
!!!AIN: 1 alto 1 bass 1 soprn 1 tenor
!!!key: F
**kern	**text	**dynam	**kern	**text	**dynam	**kern	**text	**kern	**text
*part4	*part4	*	*part3	*part3	*	*part2	*part2	*part1	*part1
*staff4	*staff4	*	*staff3	*staff3	*	*staff2	*staff2	*staff1	*staff1
*ICvox	*	*	*ICvox	*	*	*ICvox	*	*ICvox	*
*Ibass	*	*	*Itenor	*	*	*Ialto	*	*Isoprn	*
*I"Basso.	*	*	*I"Tenore.	*	*	*I"Alto.	*	*I"Soprano.	*
*I'B	*	*	*I'T	*	*	*I'A	*	*I'S	*
*clefF4	*	*	*clefC4	*	*	*clefC3	*	*clefC1	*
*k[b-]	*	*	*k[b-]	*	*	*k[b-]	*	*k[b-]	*
*F:	*	*	*F:	*	*	*F:	*	*F:	*
*M4/4	*	*	*M4/4	*	*	*M4/4	*	*M4/4	*
*met(c)	*	*	*met(c)	*	*	*met(c)	*	*met(c)	*
*all\right	*	*	*all\right	*	*	*all\right	*	*all\right	*
=1	=1	=1	=1	=1	=1	=1	=1	=1	=1
*2\right	*	*	*2\right	*	*	*2\right	*	*2\right	*
!!LO:TX:t=P:problem:all\right
2F\	Om-	.	2c\	Om-	.	2f\	Om-	2a\	Om-
4F\	-nes	.	4c\	-nes	.	4f\	-nes	4a\	-nes
4B-\	a-	.	4d\	a-	.	4d\	a-	4f/	a-
!LO:LB:g=original	!	!	!	!	!	!	!	!	!
=2	=2	=2	=2	=2	=2	=2	=2	=2	=2
4A\	-mi-	.	4c\	-mi-	.	4f\	-mi-	4a\	-mi-
4G\	-ci	.	4c\	-ci	.	4e\	-ci	4b-\	-ci
2F\	me-	.	2c\	me-	.	2f\	me-	2a\	me-
!	!	!	!LO:LB:g=original	!	!	!LO:LB:g=original	!	!LO:LB:g=original	!
=3	=3	=3	=3	=3	=3	=3	=3	=3	=3
4C/	-i,	.	4c\	-i,	.	4e\	-i,	4g\	-i
4c\	de-	.	2e\	de-	.	4g\	de-	4cc\	de-
4A\	-re-	.	.	.	.	2f\	-re-	4cc\	-re-
4Bn\	-lin-	.	[4d\	-re-	.	.	.	4dd\	-lin-
=4	=4	=4	=4	=4	=4	=4	=4	=4	=4
2c\	-que-	.	4d\]	.	.	2e\	-lin-	2.g\	-que-
.	.	.	4c\	-lin-	.	.	.	.	.
2G\	-runt	.	4c\	-que-	.	4d\	-que-	.	.
.	.	.	4Bn\	-runt	.	4d\	-runt	4g\	-runt
=5	=5	=5	=5	=5	=5	=5	=5	=5	=5
4C/	me,	.	4c\	me,	.	4e\	me,	4g\	me,
4.c\	et	.	4r	.	.	4.e\	et	4r	.
.	.	.	2r	.	.	.	.	4r	.
8B-X\	pre-	.	.	.	.	8d\	pre-	.	.
8A\	-va-	.	.	.	.	8e\	-va-	[4cc\	et
8G\	-lu-	.	.	.	.	8c\	-lu-	.	.
!LO:LB:g=original	!	!	!	!	!	!	!	!	!
=6	=6	=6	=6	=6	=6	=6	=6	=6	=6
4A\	-e-	.	4r	.	.	2f\	-e-	8cc\]	.
.	.	.	.	.	.	.	.	8b-\	pre-
4F\	-runt,	.	4.f\	et	.	.	.	8a\	-va-
.	.	.	.	.	.	.	.	8g\	-lu-
!	!	!	!	!	!	!	!	!LO:LB:g=original	!
4r	.	.	.	.	.	4f\	-runt,	8a\L	-e-
.	.	.	8e\	pre-	.	.	.	8g\	.
[y4F\	et	.	8d\	-ter-	.	[4a\	et	8f\	.
.	.	.	8c\	-va-	.	.	.	8e\J	.
!	!	!	!LO:LB:g=original	!	!	!LO:LB:g=original	!	!	!
=7	=7	=7	=7	=7	=7	=7	=7	=7	=7
!LO:N:xstem:cue	!	!	!	!	!	!	!	!	!
8F\]	.	.	1d	-lue-	.	8a\]	.	8f/L	.
8E\	pre-	.	.	.	.	8g\	pre-	8g/J	.
8D\	-va-	.	.	.	.	8f\	-va-	2.a\	.
8C#X\	-lu-	.	.	.	.	8e\	-lu-	.	.
2D\	-e-	.	.	.	.	2f\	-e-	.	.
=8	=8	=8	=8	=8	=8	=8	=8	=8	=8
4AA/	-runt,	.	4c#X\	-runt,	.	4e\	-runt	4a\	-runt
4A\	in-	.	4e\	in-	.	4a\	in-	4cc#X\	in-
4F\	-si-	.	4d\	-fi-	.	4a\	-fi-	4.dd\	-fi-
4D\	-di-	.	4f\	-di-	.	4a\	-di-	.	.
.	.	.	.	.	.	.	.	8ccn\	-di-
=9	=9	=9	=9	=9	=9	=9	=9	=9	=9
4G\	-an-	.	4e\	-an-	.	4g\	-an-	4b-\	-an-
4A\	-tes	.	4c#X\	-tes	.	8f\L	-tes	2a\	-tes
.	.	.	.	.	.	8e\J	.	.	.
2B-\	mi-	.	2d\	mi-	.	4d\	mi-	.	.
.	.	.	.	.	.	4g\	.	4g\	mi-
!LO:LB:g=original	!	!	!	!	!	!LO:LB:g=original	!	!LO:LB:g=original	!
=10	=10	=10	=10	=10	=10	=10	=10	=10	=10
4A\	-hi,	.	4c#X\	-hi,	.	4e\	-hi,	4a\	-hi,
4.F\	tra-	.	4.f\	tra-	.	4.a\	tra-	4.cc\	tra-
8F\	-di-	.	8f\	-di-	.	8a\	-di-	8cc\	-di-
4F\	-dit	.	4f\	-dit	.	4a\	-dit	4cc\	-dit
=11	=11	=11	=11	=11	=11	=11	=11	=11	=11
4C/	me,	.	2e\	me	.	2g\	me,	2cc\	me
2c\	quem	.	.	.	.	.	.	.	.
.	.	.	2d\	quem	.	2f\	quem	4a\	quem
[4B-\	di-	.	.	.	.	.	.	[4g\	di-
!	!	!	!LO:LB:g=original	!	!	!	!	!	!
=12	=12	=12	=12	=12	=12	=12	=12	=12	=12
4B-\]	.	.	4c\	di-	.	4e\	de-	4g\]	.
4A\	-li-	.	4c\	-li-	.	2f\	-li-	4a\	-li-
2G\	-ge-	.	4d\	-ge-	.	.	.	2b-\	-ge-
.	.	.	8c\L	-bam	.	4e\	-ge-	.	.
.	.	.	8B-X\J	.	.	.	.	.	.
=13	=13	=13	=13	=13	=13	=13	=13	=13	=13
4F\	-bam,	.	(4c\	et	.	4f\	-bam,	4a\	-bam,
4.F\	et	.	4A\)	.	.	4c\	et	4a\	et
.	.	.	4d\	ter-	.	4f\	ter-	4a\	ter-
8F\	ter-	.	.	.	.	.	.	.	.
4F\	-ri-	.	4d\	-ri-	.	4f\	-ri-	4a\	-ri-
!LO:LB:g=original	!	!	!	!	!	!LO:LB:g=original	!	!LO:LB:g=original	!
=14	=14	=14	=14	=14	=14	=14	=14	=14	=14
4F\	-bi-	.	2c#X\	-bi-	.	2g\	-bi-	2b-\	-bi-
8E\	-li-	.	.	.	.	.	.	.	.
8D\	-bus	.	.	.	.	.	.	.	.
[2E\	o-	.	4c#\	-li-	.	4g\	-li-	4b-\	-li-
.	.	.	4c#\	-bus	.	4g\	-bus	4b-\	-bus
=15	=15	=15	=15	=15	=15	=15	=15	=15	=15
4E\]	.	.	4.d\	o-	.	4g\	o-	4.a\	o-
8D/L	-cu-	.	.	.	.	8f\L	-cu-	.	.
8C#X/J	.	.	8d\	-cu-	.	8e\J	.	8a\	-cu-
2D\	-lis	.	4d\	-lis	.	2f\	-lis	2a\	-lis
.	.	.	[4d\	pla-	.	.	.	.	.
!	!	!	!LO:LB:g=original	!	!	!	!	!	!
=16	=16	=16	=16	=16	=16	=16	=16	=16	=16
!LO:TX:a:t=1:mod=	!	!	!	!	!	!	!	!	!
1r	.	.	4d\]	.	.	2f#X\	pla-	2a\	pla-
.	.	.	2cn\	-ga	.	.	.	.	.
.	.	.	.	.	.	4f#\	-ga	4a\	-ga
.	.	.	4c\	cru-	.	4f#\	cru-	4a\	cru-
=17	=17	=17	=17	=17	=17	=17	=17	=17	=17
2r	.	.	4c\	-de-	.	2g\	-de-	4a\	-de-
.	.	.	8B-\L	.	.	.	.	8g/L	.
.	.	.	8A\J	.	.	.	.	8f#X/J	.
4r	.	.	2B-\	-li	.	2d\	-li,	2g\	-li,
[4G\	pla-	.	.	.	.	.	.	.	.
!LO:LB:g=original	!	!	!	!	!	!	!	!LO:LB:g=original	!
=18	=18	=18	=18	=18	=18	=18	=18	=18	=18
4G\]	.	.	2d\	pla-	.	2g\	pla-	2bn\	pla-
2F\	-ga	.	.	.	.	.	.	.	.
.	.	.	4d\	-ga	.	4g\	-ga	4b\	-ga
4F\	cru-	.	4d\	cru-	.	4g\	cru-	4b\	cru-
!	!	!	!	!	!	!LO:LB:g=original	!	!	!
=19	=19	=19	=19	=19	=19	=19	=19	=19	=19
4F\	-de-	.	4d\	-de-	.	2g\	-de-	2cc\	-de-
8E\L	.	.	8c\L	.	.	.	.	.	.
8D\J	.	.	8Bn\J	.	.	.	.	.	.
4E\	-li	.	4c\	-li	.	4g\	-li,	4cc\	-li
4E\	per-	.	4c\	per-	.	4g\	per-	4cc\	per-
!	!	!	!LO:LB:g=original	!	!	!	!	!	!
=20	=20	=20	=20	=20	=20	=20	=20	=20	=20
4E-X\	-cu-	.	4B-\	-cu-	.	4g\	-cu-	4cc#X\	-cu-
4E-\	-ti-	.	4B-\	-ti-	.	4g\	-ti-	4cc#\	-ti-
2E-\	-en-	.	4B-\	-en-	.	2g\	-en-	2cc#\	-en-
.	.	.	8A/L	.	.	.	.	.	.
.	.	.	8G/J	.	.	.	.	.	.
=21	=21	=21	=21	=21	=21	=21	=21	=21	=21
2D\	-tes,	.	4A\	-tes	.	4f#X\	-tes,	2dd\	-tes,
.	.	.	4d\	a-	.	4f#\	a-	.	.
4r	.	.	4B-\	-ce-	.	4g\	-ce-	4r	.
4G\	a-	.	4G\	-to,	.	4d\	-to,	4b-\	a-
!LO:LB:g=original	!	!	!	!	!	!	!	!LO:LB:g=original	!
=22	=22	=22	=22	=22	=22	=22	=22	=22	=22
4En\	-ce-	.	4r	.	.	4r	.	4cc\	-ce-
4C\	-to	.	4c\	a-	.	4e\	a-	4g\	-to
4r	.	.	4A\	-ce-	.	4f\	-ce-	4r	.
4F\	po-	.	4F/	-to,	.	4B-/	-to	4a\	po-
!	!	!	!LO:PB:g=original	!	!	!LO:LB:g=original	!	!	!
=23	=23	=23	=23	=23	=23	=23	=23	=23	=23
2.D\	-ta-	.	4r	.	.	4r	.	4b-\	-ta-
.	.	.	4B-\	po-	.	4f\	po-	4f/	.
.	.	.	[2d\	-ta-	.	4f\	-ta-	[2b-\	.
8C/L	.	.	.	.	.	8e\L	.	.	.
8BB-/J	.	.	.	.	.	8d\J	.	.	.
=24	=24	=24	=24	=24	=24	=24	=24	=24	=24
4C/	.	.	8d\L]	.	.	4e\	.	4b-\]	.
.	.	.	8c\J	.	.	.	.	.	.
4F\	.	.	2c\	.	.	2f\	.	4a\	.
4.C/	.	.	.	.	.	.	.	4.g\	.
.	.	.	4c\	-bant	.	4e\	-bant	.	.
8C/	-bant	.	.	.	.	.	.	8g\	-bant
=25	=25	=25	=25	=25	=25	=25	=25	=25	=25
2F\	me.	.	2c\	me.	.	2f\	me:	2a\	me.
2r	.	.	2r	.	.	2r	.	2r	.
!LO:LB:g=original	!	!	!	!	!	!	!	!LO:LB:g=original	!
=26||	=26||	=26||	=26||	=26||	=26||	=26||	=26||	=26||	=26||
*M4/4	*	*	*M4/4	*	*	*M4/4	*	*M4/4	*
*met(c)	*	*	*met(c)	*	*	*met(c)	*	*met(c)	*
!LO:TX:a:t=2:mod=	!	!	!LO:TX:a:t=Solo.	!	!	!LO:TX:a:t=Solo.	!	!LO:TX:a:t=3.:mod=	!
0r	.	.	4d\	In-	.	2r	.	0r	.
.	.	.	8d\	-ter	.	.	.	.	.
.	.	.	8d\	i-	.	.	.	.	.
.	.	.	8d\	-ni-	.	4e\	in-	.	.
.	.	.	8c#X\	-quos	.	.	.	.	.
.	.	.	8c#\	pro-	.	8e\	-ter	.	.
.	.	.	16Bn\LL	-ie-	.	8e\	i-	.	.
.	.	.	16A\JJ	.	.	.	.	.	.
!	!	!	!LO:LB:g=original	!	!	!LO:LB:g=original	!	!	!
=27	=27	=27	=27	=27	=27	=27	=27	=27	=27
.	.	.	4.d\	-ce-	.	8e\	-ni-	.	.
.	.	.	.	.	.	8d\	-quos	.	.
.	.	.	.	.	.	4g\	pro-	.	.
.	.	.	8c#X\	.	.	.	.	.	.
.	.	.	8d\L	.	.	8g\L	.	.	.
.	.	.	8A\J	.	.	16f\L	.	.	.
.	.	.	.	.	.	16e\JJ	.	.	.
.	.	.	[4d\	.	.	8f\	.	.	.
.	.	.	.	.	.	8d\	-je-	.	.
=28	=28	=28	=28	=28	=28	=28	=28	=28	=28
!LO:TX:a:t=Solo.	!	!	!	!	!	!	!	!	!
2r	.	.	16.d\LL]	.	.	4e\	-ce-	1r	.
.	.	.	32cn\K	.	.	.	.	.	.
.	.	.	16Bn\	.	.	.	.	.	.
.	.	.	16A\JJ	.	.	.	.	.	.
.	.	.	8B\	.	.	4d\	-runt	.	.
.	.	.	8G#X/	runt	.	.	.	.	.
4A\	In-	.	4A\	me,	.	4c\	me,	.	.
8A\	-ter	.	4r	.	.	4r	.	.	.
8A\	i-	.	.	.	.	.	.	.	.
=29	=29	=29	=29	=29	=29	=29	=29	=29	=29
!	!	!	!LO:TX:a:t=2.:mod=	!	!	!LO:TX:a:t=2:mod=	!	!	!
8A\	-ni-	.	0r	.	.	0r	.	4bn\	In-
8G#X\	-quos	.	.	.	.	.	.	.	.
8G#\	pro-	.	.	.	.	.	.	8b\	-ter
16F#X\LL	-je-	.	.	.	.	.	.	8b\	i-
16E\JJ	.	.	.	.	.	.	.	.	.
4.A\	-ce-	.	.	.	.	.	.	8b\	-ni-
.	.	.	.	.	.	.	.	8a\	-quos
.	.	.	.	.	.	.	.	[y4dd\	pro-
8G#\	.	.	.	.	.	.	.	.	.
!LO:LB:g=original	!	!	!	!	!	!	!	!	!
=30	=30	=30	=30	=30	=30	=30	=30	=30	=30
!	!	!	!	!	!	!	!	!LO:N:xstem:cue	!
8A\L	.	.	.	.	.	.	.	8dd\]	.
16B-\L	.	.	.	.	.	.	.	16cc\LL	-je-
16G#X\JJ	.	.	.	.	.	.	.	16bn\JJ	.
8A\	.	.	.	.	.	.	.	8.cc\	-ce-
8D#X\	-runt	.	.	.	.	.	.	.	.
.	.	.	.	.	.	.	.	16cc\	-runt
8E\	me,	.	.	.	.	.	.	4bn\	me,
8E\	et	.	.	.	.	.	.	.	.
[y4A\	non	.	.	.	.	.	.	8r	.
.	.	.	.	.	.	.	.	8a\	et
!	!	!	!	!	!	!	!	!LO:LB:g=original	!
=31	=31	=31	=31	=31	=31	=31	=31	=31	=31
!LO:N:xstem:cue	!	!	!	!	!	!	!	!	!
8A\]	.	.	2r	.	.	2r	.	8dd\	non
16G#X\LL	.	.	.	.	.	.	.	4dd\	pe-
16F#X\JJ	.	.	.	.	.	.	.	.	.
8G#\	pe-	.	.	.	.	.	.	.	.
8G#\	-per-	.	.	.	.	.	.	16cc\LL	-per-
.	.	.	.	.	.	.	.	16bn\JJ	.
8A\	-ce-	.	8r	.	.	4r	.	16.cc\LL	-ce-
.	.	.	.	.	.	.	.	32b\JJk	.
8AA/	-runt	.	8A\	et	.	.	.	8a\	-runt
4r	.	.	[4e\	non	.	8r	.	4r	.
.	.	.	.	.	.	8A/	et	.	.
!	!	!	!LO:LB:g=original	!	!	!LO:LB:g=original	!	!	!
=32	=32	=32	=32	=32	=32	=32	=32	=32	=32
!LO:TX:a:t=1:mod=	!	!	!	!	!	!	!	!LO:TX:a:t=1:mod=	!
1r	.	.	8e\L]	.	.	8f\	non	1r	.
.	.	.	16d\L	.	.	4f\	pe-	.	.
.	.	.	16c\JJ	.	.	.	.	.	.
.	.	.	8d\	pe-	.	.	.	.	.
.	.	.	8d\	-per-	.	16e\LL	-per-	.	.
.	.	.	.	.	.	16d\JJ	.	.	.
.	.	.	8d\	-ce-	.	8e\	-ce-	.	.
.	.	.	8G/	-runt	.	8e\	-runt	.	.
.	.	.	[4c\	a-	.	[4e\	a-	.	.
!LO:LB:g=original	!	!	!	!	!	!	!	!	!
=33	=33	=33	=33	=33	=33	=33	=33	=33	=33
2r	.	.	8c\]	.	.	8e\]	.	2r	.
.	.	.	16Bn\	-ni-	.	16d\	-ni-	.	.
.	.	.	16A\	-ae	.	16c\	-mae	.	.
.	.	.	4B\	me-	.	4d\	me-	.	.
4r	.	.	4c\	-ae,	.	4c\	-ae,	8r	.
.	.	.	.	.	.	.	.	8g\	et
8r	.	.	4r	.	.	4r	.	[4cc\	non
8C/	et	.	.	.	.	.	.	.	.
!	!	!	!	!	!	!	!	!LO:LB:g=original	!
=34	=34	=34	=34	=34	=34	=34	=34	=34	=34
4F\	non	.	2r	.	.	2r	.	8cc\]	.
.	.	.	.	.	.	.	.	16b-\LL	.
.	.	.	.	.	.	.	.	16a\JJ	.
8G\	pe-	.	.	.	.	.	.	8b-\	pe-
8G\	-per-	.	.	.	.	.	.	8b-\	-per-
8G\	-ce-	.	8r	.	.	4r	.	8b-\	-ce-
8F\	-runt,	.	8c\	et	.	.	.	8a\	-runt
4r	.	.	[4f\	non	.	8r	.	4r	.
.	.	.	.	.	.	8a\	et	.	.
!LO:TX:b:rj:t=Volti Subitto&colon;:mod=	!	!	!	!	!	!	!	!	!
!LO:PB:g=original	!	!	!LO:LB:g=original	!	!	!LO:LB:g=original	!	!	!
=35	=35	=35	=35	=35	=35	=35	=35	=35	=35
!	!	!	!	!	!	!	!	!LO:TX:a:t=2:mod=	!
2r	.	.	8f\L]	.	.	4g\	non	0r	.
.	.	.	16e\L	.	.	.	.	.	.
.	.	.	16d\JJ	.	.	.	.	.	.
.	.	.	8e\	pe-	.	8g\	pe-	.	.
.	.	.	8e\	-per-	.	16f\LL	-per-	.	.
.	.	.	.	.	.	16e\JJ	.	.	.
8r	.	.	8e\	-ce-	.	8f\	-ce-	.	.
8d\	non	.	8d\	-runt	.	8f\	-runt	.	.
8d\	pe-	.	[4f\	a-	.	[4a\	a-	.	.
8c\	-per-	.	.	.	.	.	.	.	.
=36	=36	=36	=36	=36	=36	=36	=36	=36	=36
8B-\	-ce-	.	8f\L]	.	.	8a\L]	.	.	.
8B-\	-runt	.	16.e\L	.	.	16g\L	.	.	.
.	.	.	.	.	.	16f\JJ	.	.	.
.	.	.	32d\JJk	.	.	.	.	.	.
8B-\	a-	.	16e\LL	.	.	16g\LL	.	.	.
.	.	.	16c#X\JJ	.	.	16e\JJ	.	.	.
16B-\	-ni-	.	16d\	-ni-	.	16f\	-ni-	.	.
16B-\	-mae	.	16d\	-mae	.	16f\	-mae	.	.
8A\	me-	.	8d\	me-	.	8f\	me-	.	.
8AA/	-ae,	.	8c#X\	-ae,	.	8e\	-ae,	.	.
4r	.	.	4r	.	.	4a\	a-	.	.
!LO:LB:g=original	!	!	!LO:LB:g=original	!	!	!LO:LB:g=original	!	!	!
=37	=37	=37	=37	=37	=37	=37	=37	=37	=37
(4B-\	a-	.	2r	.	.	16a\LL	.	[4dd\	a-
.	.	.	.	.	.	16f\	.	.	.
.	.	.	.	.	.	16e\	.	.	.
.	.	.	.	.	.	16d\JJ	.	.	.
16B-\LL	.	.	.	.	.	4.g\	.	16dd\LL]	.
16A\	.	.	.	.	.	.	.	32ee\L	.
.	.	.	.	.	.	.	.	32ff\J	.
16G\	.	.	.	.	.	.	.	16ee\	.
32A\L	.	.	.	.	.	.	.	16dd\JJ	.
32B-\JJJ	.	.	.	.	.	.	.	.	.
8.A\	.	.	4r	.	.	.	.	8.cc#X\	.
.	.	.	.	.	.	16f\LL	-ni-	.	.
16A\)	-ni-	.	.	.	.	16e\JJ	.	16cc#\	-ni-
4D\	-mae	.	8r	.	.	4f\	-mae	4dd\	-mae
.	.	.	8d\	non	.	.	.	.	.
!	!	!	!	!	!	!	!	!LO:LB:g=original	!
=38	=38	=38	=38	=38	=38	=38	=38	=38	=38
[2G\	a-	.	8e-X\	pe-	.	8g\L	a-	[2b-\	a-
.	.	.	8e-\	-per-	.	16.b-\L	.	.	.
.	.	.	.	.	.	32a\JJk	.	.	.
.	.	.	8e-\	-ce-	.	8g\L	.	.	.
.	.	.	8d\	-runt	.	8f\J	.	.	.
8.G\]	.	.	8c#X\L	a-	.	4e\	.	8b-\]	.
.	.	.	8A\J	.	.	.	.	8a\	-ni-
16G\	-ni-	.	.	.	.	.	.	.	.
8F\L	-mae	.	[4d\	.	.	[4f\	.	8a\L	-mae
8G\J	.	.	.	.	.	.	.	8b-\J	.
=39	=39	=39	=39	=39	=39	=39	=39	=39	=39
2A\	me-	.	8d\]	.	.	8f\]	.	2a\	me-
.	.	.	16c#X\	-ni-	.	16e\	-ni-	.	.
.	.	.	16Bn\	-mae	.	16d\	-mae	.	.
.	.	.	4c#\	me-	.	4e\	me-	.	.
4D\	-ae.	.	4d\	-ae.	.	4d\	-ae.	4a\	-ae,
4r	.	.	4r	.	.	4r	.	4r	.
!LO:LB:g=original	!	!	!	!	!	!LO:PB:g=original	!	!	!
=40||	=40||	=40||	=40||	=40||	=40||	=40||	=40||	=40||	=40||
*M4/4	*	*	*M4/4	*	*	*	*	*M4/4	*
*met(c)	*	*	*met(c)	*	*	*	*	*met(c)	*
!LO:TX:a:t=tutti.	!	!LO:DY:b:rj:t=for.	!LO:TX:a:t=tutti	!	!LO:DY:b:rj:t=fr	!LO:TX:a:t=tutti.	!	!	!
2F\	et	f	2cn\	et	f	2f\	et	2a\	et
4F\	ter-	.	4c\	ter-	.	4f\	ter-	4a\	ter-
4F\	-ri-	.	4c\	-ri-	.	4f\	-ri-	4a\	-ri-
!	!	!	!	!	!	!	!	!LO:PB:g=original	!
=41	=41	=41	=41	=41	=41	=41	=41	=41	=41
4F\	-bi-	.	2c#X\	-bi-	.	2g\	-bi-	2b-\	-bi-
8E\	-li-	.	.	.	.	.	.	.	.
8D\	-bus	.	.	.	.	.	.	.	.
2E\	o-	.	4c#\	-li-	.	4g\	-li-	4b-\	-li-
.	.	.	4c#\	-bus	.	4g\	-bus	4b-\	-bus
=42	=42	=42	=42	=42	=42	=42	=42	=42	=42
4E\	.	.	4.d\	o-	.	4g\	o-	4.a\	o-
8D\L	-cu-	.	.	.	.	8f\L	-cu-	.	.
8C#X\J	.	.	8d\	-cu-	.	8e\J	.	8a\	-cu-
2D\	-lis	.	4d\	-lis	.	2f\	-lis	2a\	-lis
.	.	.	[4d\	pla-	.	.	.	.	.
=43	=43	=43	=43	=43	=43	=43	=43	=43	=43
!LO:TX:a:t=1:mod=	!	!	!	!	!	!	!	!	!
1r	.	.	4d\]	.	.	2f#X\	pla-	2a\	pla-
.	.	.	2cn\	-ga	.	.	.	.	.
.	.	.	.	.	.	4f#\	-ga	4a\	-ga
.	.	.	4c\	cru-	.	4f#\	cru-	4a\	cru-
!LO:LB:g=original	!	!	!LO:LB:g=original	!	!	!LO:LB:g=original	!	!	!
=44	=44	=44	=44	=44	=44	=44	=44	=44	=44
2r	.	.	4c\	-de-	.	2g\	-de-	4a\	-de-
.	.	.	8B-\L	.	.	.	.	8g/L	.
.	.	.	8A\J	.	.	.	.	8f#X/J	.
4r	.	.	2B-\	-li	.	2d\	-li	2g\	-li
[4G\	pla-	.	.	.	.	.	.	.	.
!	!	!	!	!	!	!	!	!LO:LB:g=original	!
=45	=45	=45	=45	=45	=45	=45	=45	=45	=45
4G\]	.	.	2d\	pla-	.	2g\	pla-	2bn\	pla-
2F\	-ga	.	.	.	.	.	.	.	.
.	.	.	4d\	-ga	.	4g\	-ga	4b\	-ga
4F\	cru-	.	4d\	cru-	.	4g\	cru-	4b\	cru-
=46	=46	=46	=46	=46	=46	=46	=46	=46	=46
4F\	-de-	.	4d\	-de-	.	2g\	-de-	2cc\	-de-
8E\L	.	.	8c\L	.	.	.	.	.	.
8D\J	.	.	8Bn\J	.	.	.	.	.	.
4E\	-li	.	4c\	-li,	.	4g\	-li	4cc\	-li
4E\	per-	.	4c\	per-	.	4g\	per-	4cc\	per-
=47	=47	=47	=47	=47	=47	=47	=47	=47	=47
4E-X\	-cu-	.	4B-\	-cu-	.	4g\	-cu-	4cc#X\	-cu-
4E-\	-ti-	.	4B-\	-ti-	.	4g\	-ti-	4cc#\	-ti-
2E-\	-en-	.	4B-\	-en-	.	2g\	-en-	2cc#\	-en-
.	.	.	8A/L	.	.	.	.	.	.
.	.	.	8G/J	.	.	.	.	.	.
!LO:LB:g=original	!	!	!LO:LB:g=original	!	!	!LO:LB:g=original	!	!	!
=48	=48	=48	=48	=48	=48	=48	=48	=48	=48
2D\	-tes	.	4A\	-tes,	.	4f#X\	-tes,	2dd\	-tes,
.	.	.	4d\	a-	.	4f#\	a-	.	.
4r	.	.	4B-\	-ce-	.	4g\	-ce-	4r	.
4G\	a-	.	4G\	-to	.	4d\	-to,	4b-\	a-
=49	=49	=49	=49	=49	=49	=49	=49	=49	=49
4En\	-ce-	.	4r	.	.	4r	.	4cc\	-ce-
4C/	-to	.	4c\	a-	.	4e\	a-	4g\	-to
4r	.	.	4A\	-ce-	.	4f\	-ce-	4r	.
4F\	po-	.	4F/	-to,	.	4c\	-to	4a\	po-
!	!	!	!	!	!	!	!	!LO:LB:g=original	!
=50	=50	=50	=50	=50	=50	=50	=50	=50	=50
2.D/	-ta-	.	4r	.	.	4r	.	4b-\	-ta-
.	.	.	4B-\	po-	.	4f\	po-	4f/	.
.	.	.	[2d\	-ta-	.	4f\	-ta-	[2b-\	.
8C/L	.	.	.	.	.	8e\L	.	.	.
8BB-/J	.	.	.	.	.	8d\J	.	.	.
!	!	!	!	!	!	!LO:LB:g=original	!	!	!
=51	=51	=51	=51	=51	=51	=51	=51	=51	=51
4C/	.	.	8d\L]	.	.	4e\	.	4b-\]	.
.	.	.	8c\J	.	.	.	.	.	.
4F\	.	.	2c\	.	.	2f\	.	4a\	.
4.C/	.	.	.	.	.	.	.	4.g\	.
.	.	.	4c\	-bant	.	4e\	-bant	.	.
8C/	-bant	.	.	.	.	.	.	8g\	-bant
!	!	!	!LO:LB:g=original	!	!	!	!	!	!
=52	=52	=52	=52	=52	=52	=52	=52	=52	=52
2F\	me.	.	2c\	me.	.	2f\	me.	2a\	me.
2r	.	.	2r	.	.	2r	.	2r	.
==	==	==	==	==	==	==	==	==	==
*-	*-	*-	*-	*-	*-	*-	*-	*-	*-
!!!system-decoration: [(s1,s2,s3,s4)]
!!!RDF**kern: > = above
!!!RDF**kern: < = below
!!!RDF**kern: i = editorial accidental
!!!ENC: Berenika Jozajtis
!!!EED: Katarzyna Serwa
!!!END: 2023-11-15
!!!EEV: 2024-06-04
